X:1
T:Polka : Dans le port de Tacoma
Z:Ren Quiniou (http://www.irisa.fr/prive/quiniou)
R:Polka
O:Chants de marins
M:4/4
L:1/8
K:G
| dd Bd ed B2 | BA- A2 BA- A2 | dd Bd ed B2 | AB/c/ BA G4 ||
| G2 Bd g3 f e>f ge d4 | dd Bd ed B2 | AB/c/ BA G4 ||
